X:1
T:Chenango, LMD
T:Chenango, LMD
T:Arranged by F. L. Brown, 1892
T:Public Domain Courtesy of the Cyber Hymnal™
C:Arranged by F. L. Brown, 1892
Z:Public Domain
Z:Courtesy of the Cyber Hymnal™
%%score ( 1 2 ) ( 3 4 )
L:1/8
Q:1/4=97
M:6/8
K:Ab
V:1 treble 
V:2 treble 
V:3 bass 
V:4 bass 
V:1
 [CE] | [Ec]2 [Ec] [Ec]2 [Ec] | [Ge]2 [Fd] [Ec]2 [Ec] | [Gc]2 [GB] [Fd]2 [Ec] | (BA)[DF] [CE]2 E | %5
 [Ec]2 [Ec] [Fc]2 [Fc] | [Fe]2 [Fd] [=Ec]2 [Fc] | [Fd]2 [DF] (GE)[EB] | [EA]2 [=DA] [EA]2 E | %9
 [EB]2 [=DB] [_DB]2 [Dc] | [CA]2 [DA] [CA]2 [Ec] | [Ge]2 [GB] [Ge]2 [G=B] | [Ac]2 [Ac] [GB]2 [DE] | %13
 [Cc]2 [Ec] [Ec]2 [_Gc] | [Fe]2 [_Fd] [Ec]2 [=Fc] x6 | [Fd]2 [DF] ([DG][Ec])[DB] | %16
 [CA]2 [DA] [CA]2 |] %17
V:2
 x | x6 | x6 | x6 | D2 x2 E x | x6 | x6 | x3 D2 x | x5 E | x6 | x6 | x6 | x6 | x6 | x12 | x6 | %16
 x5 |] %17
V:3
 [A,,A,] | [A,,A,]2 [C,A,] [E,A,]2 [A,,A,] | [A,,A,]2 [A,,A,] [A,,A,]2 A, | %3
 [E,D]2 [E,D] [E,G,]2 [E,G,] | [A,,F,]2 [A,,G,] [A,,A,]2 [E,G,] | A,2 _A, [F,=A,]2 [F,E] | %6
 B,2 [B,,B,] [C,G,]2 [F,=A,] | [B,,B,]2 [B,,B,] [E,B,]2 [E,D] | [A,C]2 [A,=B,] [A,C]2 [A,C] | %9
 [G,B,]2 [F,A,] [E,G,]2 [E,G,] | [A,,E,]2 [A,,F,] [A,,E,]2 [A,,A,] | [E,B,]2 [E,E] [E,=B,]2 [E,E] | %12
 [A,E]2 [A,E] [E,D]2 [E,G,] | [A,,A,]2 [A,,A,] [A,,A,]2 [A,,A,] | %14
 [A,,A,]2 [A,,A,] [A,,A,]2 [F,=A,] [B,,B,]2 [B,,B,] (B,G,)[E,G,] | [A,,A,]2 [A,,F,] [A,,E,]2 x | %16
 x5 |] %17
V:4
 x | x6 | x5 A, | x6 | x6 | =A,2 =A, x3 | B,2 x4 | x6 | x6 | x6 | x6 | x6 | x6 | x6 | x9 E,2 x | %15
 x6 | x5 |] %17

